symbols/web/control_point_duplicate/materialsymbolsoutlined/control_point_duplicate_wght500gradN25fill1_24px.svg

<svg xmlns="http://www.w3.org/2000/svg" height="24" width="24"><path d="M13.975 15.875h1.95v-2.9h2.9v-1.95h-2.9v-2.9h-1.95v2.9h-2.9v1.95h2.9Zm-7.875 4.4q-2.625-.95-4.225-3.213Q.275 14.8.275 12q0-2.8 1.6-5.063 1.6-2.262 4.225-3.212V6.1q-1.7.85-2.687 2.437-.988 1.588-.988 3.463t.988 3.463Q4.4 17.05 6.1 17.9Zm8.85.5q-1.825 0-3.412-.7-1.588-.7-2.775-1.887Q7.575 17 6.875 15.412q-.7-1.587-.7-3.412t.7-3.425q.7-1.6 1.888-2.788Q9.95 4.6 11.538 3.912q1.587-.687 3.412-.687t3.425.687q1.6.688 2.788 1.875 1.187 1.188 1.875 2.788.687 1.6.687 3.425 0 1.825-.687 3.412-.688 1.588-1.875 2.776-1.188 1.187-2.788 1.887-1.6.7-3.425.7Z"/></svg>

<svg xmlns="http://www.w3.org/2000/svg" height="24" width="24"><path d="M13.975 15.875H15.925V12.975H18.825V11.025H15.925V8.125H13.975V11.025H11.075V12.975H13.975ZM6.1 20.275Q3.475 19.325 1.875 17.062Q0.275 14.8 0.275 12Q0.275 9.2 1.875 6.937Q3.475 4.675 6.1 3.725V6.1Q4.4 6.95 3.413 8.537Q2.425 10.125 2.425 12Q2.425 13.875 3.413 15.463Q4.4 17.05 6.1 17.9ZM14.95 20.775Q13.125 20.775 11.538 20.075Q9.95 19.375 8.763 18.188Q7.575 17 6.875 15.412Q6.175 13.825 6.175 12Q6.175 10.175 6.875 8.575Q7.575 6.975 8.763 5.787Q9.95 4.6 11.538 3.912Q13.125 3.225 14.95 3.225Q16.775 3.225 18.375 3.912Q19.975 4.6 21.163 5.787Q22.35 6.975 23.038 8.575Q23.725 10.175 23.725 12Q23.725 13.825 23.038 15.412Q22.35 17 21.163 18.188Q19.975 19.375 18.375 20.075Q16.775 20.775 14.95 20.775Z"/></svg>
